_includes/icons/color-gift.svg

<svg fill="#666" height="50" viewBox="0 0 48 48" width="50" xmlns="http://www.w3.org/2000/svg"><path d="m38 42h-28c-1.101562 0-2-.898437-2-2v-20h32v20c0 1.101563-.898437 2-2 2z" fill="#d32f2f"/><path d="m42 20h-36v-6c0-1.101562.898438-2 2-2h32c1.101563 0 2 .898438 2 2z" fill="#f44336"/><path d="m22 20h4v22h-4z" fill="#ff8f00"/><path d="m32 6h-4l-6 6h4z" fill="#ff8f00"/><path d="m20 6h-4l6 6v8h4v-8z" fill="#ffc107"/></svg>

<svg xmlns="http://www.w3.org/2000/svg" viewBox="0 0 48 48" width="50" height="50" fill="#666"><path d="M 38 42 L 10 42 C 8.898438 42 8 41.101563 8 40 L 8 20 L 40 20 L 40 40 C 40 41.101563 39.101563 42 38 42 Z" fill="#d32f2f"/><path d="M 42 20 L 6 20 L 6 14 C 6 12.898438 6.898438 12 8 12 L 40 12 C 41.101563 12 42 12.898438 42 14 Z" fill="#f44336"/><path d="M 22 20 L 26 20 L 26 42 L 22 42 Z" fill="#ff8f00"/><path d="M 32 6 L 28 6 L 22 12 L 26 12 Z" fill="#ff8f00"/><path d="M 20 6 L 16 6 L 22 12 L 22 20 L 26 20 L 26 12 Z" fill="#ffc107"/></svg>
